.local/share/icons/Gruvbox-Plus-Dark/actions/16/embosstool.svg

<svg width="16" height="16" version="1.1" xmlns="http://www.w3.org/2000/svg">
  <defs>
    <style id="current-color-scheme" type="text/css">.ColorScheme-Text { color:#ebdbb2; } .ColorScheme-Highlight { color:#458588; }</style>
  </defs>
  <path class="ColorScheme-Text" d="m3 1c-1.108 0-2 0.892-2 2v10c0 1.108 0.892 2 2 2h10c1.108 0 2-0.892 2-2v-10c0-1.108-0.892-2-2-2h-10zm0 2h10v10h-10v-10zm2.5 1c-0.831 0-1.5 0.669-1.5 1.5v5c0 0.831 0.669 1.5 1.5 1.5h5c0.831 0 1.5-0.669 1.5-1.5v-5c0-0.831-0.669-1.5-1.5-1.5h-5zm0.5 2h4v4h-4v-4z" fill="currentColor"/>
</svg>

<svg xmlns="http://www.w3.org/2000/svg" width="16" height="16" version="1.1">
 <defs>
  <style id="current-color-scheme" type="text/css">
   .ColorScheme-Text { color:#555555; } .ColorScheme-Highlight { color:#4285f4; } .ColorScheme-NeutralText { color:#ff9800; } .ColorScheme-PositiveText { color:#4caf50; } .ColorScheme-NegativeText { color:#f44336; }
  </style>
 </defs>
 <path style="fill:currentColor" class="ColorScheme-Text" d="M 3 1 C 1.892 1 1 1.892 1 3 L 1 13 C 1 14.108 1.892 15 3 15 L 13 15 C 14.108 15 15 14.108 15 13 L 15 3 C 15 1.892 14.108 1 13 1 L 3 1 z M 3 3 L 13 3 L 13 13 L 3 13 L 3 3 z M 5.5 4 C 4.669 4 4 4.669 4 5.5 L 4 10.5 C 4 11.331 4.669 12 5.5 12 L 10.5 12 C 11.331 12 12 11.331 12 10.5 L 12 5.5 C 12 4.669 11.331 4 10.5 4 L 5.5 4 z M 6 6 L 10 6 L 10 10 L 6 10 L 6 6 z"/>
</svg>
